fs/building_retail_more_20_regular.svg

<svg viewBox="0 0 20 20" fill="none" xmlns="http://www.w3.org/2000/svg" height="1em" width="1em">
  <path d="M7.00031 13C7.55259 13 8.00031 12.5523 8.00031 12C8.00031 11.4477 7.55259 11 7.00031 11C6.44802 11 6.00031 11.4477 6.00031 12C6.00031 12.5523 6.44802 13 7.00031 13ZM11.0003 12C11.0003 12.5523 10.5526 13 10.0003 13C9.44802 13 9.00031 12.5523 9.00031 12C9.00031 11.4477 9.44802 11 10.0003 11C10.5526 11 11.0003 11.4477 11.0003 12ZM13.0003 13C13.5526 13 14.0003 12.5523 14.0003 12C14.0003 11.4477 13.5526 11 13.0003 11C12.448 11 12.0003 11.4477 12.0003 12C12.0003 12.5523 12.448 13 13.0003 13ZM4.00029 3.29289C4.18782 3.10536 4.44218 3 4.70739 3H15.2932C15.5584 3 15.8128 3.10536 16.0003 3.29289L18.6418 5.9344C19.4041 6.69666 18.8642 8 17.7862 8H17.0003V15C17.0003 16.1046 16.1049 17 15.0003 17H5.00031C3.89574 17 3.00031 16.1046 3.00031 15V8H2.21438C1.13639 8 0.596521 6.69666 1.35878 5.9344L4.00029 3.29289ZM16.0003 15V8H4.00031V15C4.00031 15.5523 4.44802 16 5.00031 16H15.0003C15.5526 16 16.0003 15.5523 16.0003 15ZM17.7862 7C17.9733 7 18.067 6.7738 17.9347 6.64151L15.2932 4H4.70739L2.06589 6.64151C1.9336 6.7738 2.02729 7 2.21438 7H17.7862Z" fill="#212121"/>
</svg>

<svg viewBox="0 0 20 20" fill="none" xmlns="http://www.w3.org/2000/svg" height="1em" width="1em">
  <path d="M7 13a1 1 0 1 0 0-2 1 1 0 0 0 0 2Zm4-1a1 1 0 1 1-2 0 1 1 0 0 1 2 0Zm2 1a1 1 0 1 0 0-2 1 1 0 0 0 0 2ZM4 3.293A1 1 0 0 1 4.707 3h10.586a1 1 0 0 1 .707.293l2.642 2.641c.762.763.222 2.066-.856 2.066H17v7a2 2 0 0 1-2 2H5a2 2 0 0 1-2-2V8h-.786C1.136 8 .597 6.697 1.36 5.934L4 3.293ZM16 15V8H4v7a1 1 0 0 0 1 1h10a1 1 0 0 0 1-1Zm1.786-8a.21.21 0 0 0 .149-.358L15.293 4H4.707L2.066 6.642A.21.21 0 0 0 2.214 7h15.572Z" fill="#212121"/>
</svg>
